X:2
T:I Didn't Know What Time It Was
C:Rodgers-Hart
L:1/8
M:C
I:linebreak $
K:Gb
"Fm" B4"Bb7" z F G2 |"Ebm" A2 A2"Ab7" AB G2 |"Fm" B4"Bb7" z F G2 |"Ebm" A4"Ab7" z4 |$
"Abm" A4 z"Fø" E F2 |"Ebm" G2 G2"Ebm/Db" GA F2 |"B" E2 E2"Bbm" EF D2 Ox/||1
"Abm" c4"Gbm" z4 :|2"Abm" d4"Db7" z4 ||$"Abm/Gb" e4"Gb" z dcB |"Fø" A2 AF"Bb7" A2 AF |
"Fø" A2 AF"E7" A2 =G2 |"Ebm" G4"Ab7" z4 |$"Abm" e4"Db7" z dcB |"Gb" A2 AF"Gb/F" A2 AF |
"Ebm" A2 AF"Ab7" A2 G2 |"Abm" d4"Gbm" "_D.C. al Coda" z4 ||$Ox/"Bm" d4"E7" c4 |"Bbm" B4"Ebm" z F G2 |
"Abm" A2 A2"Db4" AB G2 |"Gb6" G8 | z8 |]

